X: 2
T: The Cliff Hornpipe
C: James Hill
M: C
L: 1/8
R: Hornpipe
S: Honeyman \`i Strathspey, Reel and Hornpipe Tutor  (1898)
Z: AK/Fiddlers Companion
K: Fmaj
cA|FAcA FBdB|Acfc afcA|Bdgb Acfa|(3gaf (3efd (3cdB (3ABG|
FAcA FBdB|Acfc AfcA|Bdgb agfe|g2f2 f2:|
|:ef|gc (3ccc c2 ac|gc (3ccc c2ga|bgaf gefa|(3gaf (3efd (3cdB (3ABG|
FAcA FBdB|Acfc afcA|Bdgb agfe|g2f2 f2:|
